X:644
T:Danny Boy
S:Memory
Z:Nigel Gatherer
L:1/8
M:4/4
K:G
FGA | B3A BedB | AGE2- EFGB | d3e dBGB | A4- A
FGA | B3A BedB | AGE2- EFGA | B3c BAGA | G4- G
def | g3f fede | dBG2- Gdef | g3f fedB | A4- A
ddd | b3a ageg | dBG2- GFGA | B3c BAGA | G4- G |]
